X: 278
T: Ha-tikva
O: Eastern European Jewish
%%musicspace 0.20cm
M: C
L: 1/8
W:So long as still within our breasts, the Jewish heart beats true,
W:So long as still towards the East, to Zion, looks the Jew,
W:So long our hopes are not yet lost, two thousand years we cherished them
W:To live in freedom in the land of Zion and Jerusalem.
K: Dm
| "Dm"DE FG A2 A2 | "Gm"BA Bd "Dm"A4 | "Gm"G2 GE "Dm"F2 F2 | "A7"ED EF "Dm"D2 zA, 
w: Kol* od ba-le-vav p'-*ni-*ma ne-fesh ye-hu-di ho-*mi-*a ul-
| "Dm"DE FG A2 A2 | "Gm"BA Bd "Dm"A4 | "Gm"G2 GE "Dm"F2 F2 | "A7"ED EF "Dm"D2 z2 
w: fa-a-tey* miz-rach ka-*di-*ma a-yin l'-tsi-yon tso-*fi-*ya.
| "Dm"D2 d2 "Bb"d2 d2 | "C7"cd cB "F"A2- "A7"A2 | "Dm"D2 d2 "Bb"d2 d2 | "C7"cd cB "F"A4 
w: Od lo av-da tik-va-tey-*nu* ha-tik-va bat shnot al-pa-*yim
| "F"c2 cc F2 F2 | "C7"GA Bc "F"AG F2 | "Gm"G2 G2 "Dm"F2 FF | "A7"ED EF "Dm"D4 
w: li-yot am chof-shi be-*ar-*tse-*nu e-rets tsi-yon vi-ru-sha-la-*yim
| "Gm"G2 GE "Dm"F2 F2 | "C7"GA Bc "F"AG F2 | "Gm"G2 G2 "Dm"F2 FF | "A7"ED EF "Dm"D4 |]
w: li-yot am chof-shi be-*ar-*tse-*nu e-rets tsi-yon vi-ru-sha-la-*yim



